X: 1
T: Old Rattray
C: Jim Watson
R: march
B: 'Ian Powrie's Selection of Scottish Country Dance Tunes' (1950's)
M: 4/4
L: 1/8
K: D
g fe \
|  d2 A>A GF ED | F<A A>B Ag fe | d2 A>A GF ED | f<e e>f eg fe |
|  d2 A>A GF ED | G>F GA  Bg fe | d>A GF GB AG | F2 D2 D2 fg ||
|| a>g fe d2 FA | G>F GA  Bg fg | a>g fe df ad | f2 e2 e2 fg |
|  a>g fe d2 FA | G>F GA  Bg fe | d>A GF GB AG | F2 D2 D2 |]
